icons/svg/admin_12.svg

<?xml version="1.0" encoding="UTF-8"?>
<svg width="12px" height="12px" viewBox="0 0 12 12" version="1.1" xmlns="http://www.w3.org/2000/svg" xmlns:xlink="http://www.w3.org/1999/xlink">
    <!-- Generator: Sketch 58 (84663) - https://sketch.com -->
    <title>admin_12</title>
    <desc>Created with Sketch.</desc>
    <g id="Icons-Webex" stroke="none" stroke-width="1" fill="none" fill-rule="evenodd">
        <g id="settings/admin_12" fill="#171B1F">
            <g id="admin_12">
                <path d="M5.99996341,0 C8.20596341,0 9.99996341,1.794 9.99996341,4 C9.99996341,6.13915152 8.3130433,7.8908944 6.19933542,7.99509631 L5.99996341,8 L3.58196341,8 C2.60351896,8 1.74638316,8.60297531 1.4452453,9.48627864 L1.39796341,9.645 L1.04896341,11 L6.49996341,11 C6.77496341,11 6.99996341,11.224 6.99996341,11.5 C6.99996341,11.7453333 6.82218563,11.9495802 6.58953817,11.9919396 L6.49996341,12 L0.843963406,12 C0.577963406,12 0.333963406,11.881 0.172963406,11.672 C0.0383919771,11.4971429 -0.0205059821,11.2818776 0.00634532989,11.067137 L0.0269634057,10.96 L0.429963406,9.395 C0.777963406,8.043 1.98496341,7.092 3.39996341,7.015 C2.54996341,6.281 1.99996341,5.209 1.99996341,4 C1.99996341,1.794 3.79396341,0 5.99996341,0 Z M9.76756341,7 C10.0425634,7 10.2675634,7.225 10.2675634,7.5 L10.2675634,7.5 L10.2675634,8.093 C10.4415634,8.154 10.5975634,8.247 10.7345634,8.364 L10.7345634,8.364 L11.2495634,8.067 C11.4895634,7.93 11.7945634,8.012 11.9335634,8.25 C12.0715634,8.488 11.9895634,8.796 11.7495634,8.933 L11.7495634,8.933 L11.2415634,9.228 C11.2555634,9.316 11.2675634,9.406 11.2675634,9.5 C11.2675634,9.594 11.2565634,9.684 11.2415634,9.771 L11.2415634,9.771 L11.7495634,10.067 C11.9895634,10.204 12.0715634,10.512 11.9335634,10.75 C11.7945634,10.988 11.4895634,11.07 11.2495634,10.933 L11.2495634,10.933 L10.7345634,10.636 C10.5975634,10.753 10.4415634,10.846 10.2675634,10.907 L10.2675634,10.907 L10.2675634,11.5 C10.2675634,11.775 10.0425634,12 9.76756341,12 C9.49356341,12 9.26756341,11.775 9.26756341,11.5 L9.26756341,11.5 L9.26756341,10.907 C9.09456341,10.846 8.93756341,10.753 8.80056341,10.636 L8.80056341,10.636 L8.28656341,10.933 C8.04656341,11.07 7.74156341,10.988 7.60356341,10.75 C7.46456341,10.512 7.54656341,10.204 7.78656341,10.067 L7.78656341,10.067 L8.29456341,9.771 C8.27956341,9.684 8.26756341,9.594 8.26756341,9.5 C8.26756341,9.406 8.28056341,9.316 8.29456341,9.228 L8.29456341,9.228 L7.78656341,8.933 C7.54656341,8.796 7.46456341,8.488 7.60356341,8.25 C7.74156341,8.012 8.04656341,7.93 8.28656341,8.067 L8.28656341,8.067 L8.80056341,8.364 C8.93756341,8.247 9.09456341,8.154 9.26756341,8.093 L9.26756341,8.093 L9.26756341,7.5 C9.26756341,7.225 9.49356341,7 9.76756341,7 Z M9.76756341,9 C9.49256341,9 9.26756341,9.224 9.26756341,9.5 C9.26756341,9.776 9.49256341,10 9.76756341,10 C10.0435634,10 10.2675634,9.776 10.2675634,9.5 C10.2675634,9.224 10.0435634,9 9.76756341,9 Z M5.99996341,1 C4.34596341,1 2.99996341,2.346 2.99996341,4 C2.99996341,5.654 4.34596341,7 5.99996341,7 C7.65396341,7 8.99996341,5.654 8.99996341,4 C8.99996341,2.346 7.65396341,1 5.99996341,1 Z" id="fill"></path>
            </g>
        </g>
    </g>
</svg>

<svg width="12" height="12" xmlns="http://www.w3.org/2000/svg"><path d="M6 0c2.206 0 4 1.794 4 4 0 2.14-1.687 3.89-3.8 3.995L6 8H3.582c-.978 0-1.836.603-2.137 1.486l-.047.159L1.049 11H6.5a.5.5 0 01.09.992L6.5 12H.844a.839.839 0 01-.838-.933l.021-.107.403-1.565c.348-1.352 1.555-2.303 2.97-2.38A3.975 3.975 0 012 4c0-2.206 1.794-4 4-4zm3.768 7c.275 0 .5.225.5.5v.593c.174.061.33.154.467.271l.515-.297a.5.5 0 11.5.866l-.508.295c.014.088.026.178.026.272 0 .094-.011.184-.026.271l.508.296a.5.5 0 11-.5.866l-.515-.297c-.137.117-.293.21-.467.271v.593c0 .275-.225.5-.5.5a.502.502 0 01-.5-.5v-.593a1.474 1.474 0 01-.467-.271l-.514.297a.502.502 0 01-.683-.183.498.498 0 01.183-.683l.508-.296a1.585 1.585 0 01-.027-.271c0-.094.013-.184.027-.272l-.508-.295a.498.498 0 01-.183-.683.502.502 0 01.683-.183l.514.297c.137-.117.294-.21.467-.271V7.5c0-.275.226-.5.5-.5zm0 2a.5.5 0 10.001 1.002A.5.5 0 009.768 9zM6 1C4.346 1 3 2.346 3 4s1.346 3 3 3 3-1.346 3-3-1.346-3-3-3z" fill="#171B1F" fill-rule="evenodd"/></svg>
